X:2
T:Irish American
T:Abbey Reel
R:reel
S:Willie Kelly
Z:M. Hogan
M:C|
L:1/8
K:G
A2 AB A2 GE|A2 GA BddB|AcBG AGED|GFGA BddB|!
A3B A2 GE|A2 GA BddB|AcBG AGED|G3A Bcdg||!
eg (3gfg a2 ab|gabg aged|eg (3gfg a2 ga|bgef gedg|!
eg (3gfg agbg|agbg ageg|degb a2 ga|bgef gedB||!

